X:1
T:Title
%%score 1 2
L:1/8
Q:1/4=130
M:3/2
K:Bb
V:1 treble nm="Grand Piano, Soprano"
V:2 bass nm="Choir Pad, Tahiti, E. M. Clark, 1878"
V:1
 [DF]2 [DF]2 [DF]2 [DF]6 | [DF]2 [EG]2 [DF]2 [DB]6 | [FB]2 [FA]2 [FB]2 [Fc]6 | %3
w: By~Elizabeth~Manford~Clark,~1878 * * *|||
 [Fc]2 [FB]2 [Fc]2 [Fd]6 | [Fd]2 [Fd]2 [Fd]2 [DB]6 | [DB]2 [EB]2 [FB]2 [EG]6 | %6
w: |||
 [EG]2 F2 [DF]2 [DF]6 | F2 [EG]2 [EA]2 [DB]6 | [CF]2 [CF]2 [CF]2 [EA]6 | [EF]2 [EF]2 [EF]2 [DB]6 | %10
w: ||||
 [DB]2 [CA]2 [DB]2 [Ec]6 | F2 [EG]2 [EA]2 [DB]6 | [Fd]2 [Fd]2 [Fd]2 [DB]6 | %13
w: |||
 [DB]2 [EB]2 [FB]2 [EG]6 | [GB]2 [FA]2 [EG]2 F2 [DB]2 [Ec]2- | [Ec]2 [EA]4 [DB]6- | [DB]4 z4 z4 |] %17
w: ||||
V:2
 [B,,B,]2 [B,,B,]2 [B,,B,]2 [B,,B,]6 | [B,,B,]2 [B,,B,]2 [B,,B,]2 [B,,F,]6 | %2
 [F,D]2 [F,C]2 [F,D]2 [F,C]6 | [E,A,]2 [D,B,]2 [D,A,]2 [B,,B,]6 | %4
 [B,,B,]2 [B,,B,]2 [B,,B,]2 [B,,B,]6 | [B,,B,]2 [C,B,]2 [D,B,]2 [E,B,]6 | %6
 [E,B,]2 [D,B,]2 [B,,B,]2 [F,A,]6 | [D,B,]2 [E,B,]2 F,2 [B,,F,]6 | [F,A,]2 [F,A,]2 [F,A,]2 [F,C]6 | %9
 [F,A,]2 [F,A,]2 [F,A,]2 [B,,B,]6 | F,2 F,2 F,2 [F,A,]6 | [F,A,]2 [F,B,]2 F,2 [B,,F,]6 | %12
 [B,,B,]2 [B,,B,]2 [B,,B,]2 [B,,B,]6 | [B,,B,]2 [C,B,]2 [D,B,]2 [E,B,]6 | %14
 [E,B,]2 [E,B,]2 [E,B,]2 [D,B,]2 [B,,B,]2 [E,G,]2- | [E,G,]2 F,4 [B,,F,]6- | [B,,F,]4 z4 z4 |] %17

